src/components/00-materials/images-raw/Garage.svg

<svg width="96" height="96" viewBox="0 0 96 96" fill="none" xmlns="http://www.w3.org/2000/svg">
<path d="M80.91 68.7298V61.7298C80.9206 60.8302 80.6167 59.9551 80.0506 59.2558C79.4846 58.5565 78.6921 58.0769 77.81 57.8998L67.18 55.0498L60.29 48.6498C56.29 44.8598 53.46 44.0498 49.92 44.0498H37.54M35.8 74.0598H59.86H35.8ZM35.77 69.0898H60.77H35.77Z" stroke="#00008F" stroke-width="2" stroke-linecap="round" stroke-linejoin="round"/>
<path d="M66.61 80.0898C70.3379 80.0898 73.36 77.0678 73.36 73.3398C73.36 69.6119 70.3379 66.5898 66.61 66.5898C62.8821 66.5898 59.86 69.6119 59.86 73.3398C59.86 77.0678 62.8821 80.0898 66.61 80.0898Z" stroke="#00008F" stroke-width="2" stroke-linecap="round" stroke-linejoin="round"/>
<path d="M66.61 75.8398C67.9907 75.8398 69.11 74.7206 69.11 73.3398C69.11 71.9591 67.9907 70.8398 66.61 70.8398C65.2293 70.8398 64.11 71.9591 64.11 73.3398C64.11 74.7206 65.2293 75.8398 66.61 75.8398Z" stroke="#00008F" stroke-width="2" stroke-linecap="round" stroke-linejoin="round"/>
<path d="M74.0001 74.06H80.4901C81.0205 74.06 81.5292 73.8493 81.9043 73.4742C82.2794 73.0991 82.4901 72.5904 82.4901 72.06V71.06C82.4901 70.5296 82.2794 70.0209 81.9043 69.6458C81.5292 69.2707 81.0205 69.06 80.4901 69.06H72.3801M80.9101 63.74C79.3884 63.6869 77.9498 63.0324 76.9101 61.92C75.8392 60.5692 75.0318 59.0291 74.5301 57.38M36.3801 48.64H48.9001C51.488 48.6282 53.9861 49.5881 55.9001 51.33L61.6801 56.59M61.6301 56.59H35.9501M45.1601 69.09V48.64" stroke="#00008F" stroke-width="2" stroke-linecap="round" stroke-linejoin="round"/>
<path d="M35.66 69.1199V44.9099C38.4817 43.6788 40.8828 41.6512 42.5692 39.0756C44.2555 36.5001 45.1537 33.4884 45.1537 30.4099C45.1537 27.3314 44.2555 24.3198 42.5692 21.7442C40.8828 19.1686 38.4817 17.141 35.66 15.9099V28.8299H23V15.9099C20.1784 17.141 17.7772 19.1686 16.0909 21.7442C14.4046 24.3198 13.5063 27.3314 13.5063 30.4099C13.5063 33.4884 14.4046 36.5001 16.0909 39.0756C17.7772 41.6512 20.1784 43.6788 23 44.9099V73.8199C23 75.5014 23.668 77.114 24.857 78.303C26.0459 79.4919 27.6585 80.1599 29.34 80.1599C31.0215 80.1599 32.6341 79.4919 33.8231 78.303C35.0121 77.114 35.68 75.5014 35.68 73.8199V69.1199H35.66Z" stroke="#00008F" stroke-width="2" stroke-linecap="round" stroke-linejoin="round"/>
</svg>

<svg width="96" height="96" viewBox="0 0 96 96" fill="none" xmlns="http://www.w3.org/2000/svg"><path d="M80.91 68.73v-7a3.86 3.86 0 00-3.1-3.83l-10.63-2.85-6.89-6.4c-4-3.79-6.83-4.6-10.37-4.6H37.54M35.8 74.06h24.06H35.8zm-.03-4.97h25-25zM66.61 80.09a6.75 6.75 0 100-13.5 6.75 6.75 0 000 13.5z" stroke="#00008F" stroke-width="2" stroke-linecap="round" stroke-linejoin="round"/><path d="M66.61 75.84a2.5 2.5 0 100-5 2.5 2.5 0 000 5zM74 74.06h6.49a2 2 0 002-2v-1a2 2 0 00-2-2h-8.11m8.53-5.32a5.75 5.75 0 01-4-1.82 13.75 13.75 0 01-2.38-4.54m-38.15-8.74H48.9a10.33 10.33 0 017 2.69l5.78 5.26m-.05 0H35.95m9.21 12.5V48.64" stroke="#00008F" stroke-width="2" stroke-linecap="round" stroke-linejoin="round"/><path d="M35.66 69.12V44.91a15.82 15.82 0 000-29v12.92H23V15.91a15.82 15.82 0 000 29v28.91a6.34 6.34 0 0012.68 0v-4.7h-.02z" stroke="#00008F" stroke-width="2" stroke-linecap="round" stroke-linejoin="round"/></svg>
